assets/images/depfin-services-interview/icon-dl.svg

<svg xmlns="http://www.w3.org/2000/svg" width="18" height="18"><path fill-rule="evenodd" fill="#FEE300" d="M0 18v-2h18v2H0zm9.014-4.986s-2.223-2.153-4.016-4.032c-.942-.986-.682-1.985.255-1.985H8V0h2v6.997h2.974c.754 0 1.229.804.246 1.796a1732.957 1732.957 0 0 1-4.206 4.221z"/></svg>

<svg
        xmlns="http://www.w3.org/2000/svg"
        xmlns:xlink="http://www.w3.org/1999/xlink"
        width="18px" height="18px">
    <path fill-rule="evenodd"  fill="rgb(254, 227, 0)"
          d="M-0.000,18.000 L-0.000,16.000 L18.000,16.000 L18.000,18.000 L-0.000,18.000 ZM9.014,13.014 C9.014,13.014 6.791,10.861 4.998,8.982 C4.056,7.996 4.316,6.997 5.253,6.997 C6.055,6.997 7.009,6.997 8.000,6.997 L8.000,-0.000 L10.000,-0.000 L10.000,6.997 C11.084,6.997 12.126,6.997 12.974,6.997 C13.728,6.997 14.203,7.801 13.220,8.793 C11.458,10.570 9.014,13.014 9.014,13.014 Z"/>
</svg>
